X:1
T:Comrades of the Legion
M:C|
L:1/4
P:Piccolo
%Q:1/2=120
K:Eb
e'zz2 | !2!z4 | z2c'2- | c'ze'2- | e'zg'2- | g'f'e'f' | d'((3b/c'/b/ =ab)
|: e'4- | e'(3(b/c'/b/=ab) | zTb2z | zTb2z | eg/c'/e'2- | e'((3d'/e'/d'/c')e' |\
zTf'2z | zTf'2z | z.g.g.g | g((3f/g/f/ed) | z.e'.e'.e' | e'((3d'/e'/d'/c'b- |
b/)=a/g/_g/f2- | f(f/=e/)f(Lc' | Lb)zbz |1 z((3b/c'/b/=ab) :|2 z((3b/c'/b/a)g |]
|:\
Lf2La2 | Lg2Lf2 | bLb2b | Lb2L=b2 |\
Lc'2Le'2 | Ld'2Lc'2 | f'Lf'2f' | Lf'2L^f'2 |
Lg'3f' | Le'3d' | Lc'>d'e'>c' | La2.g.a |\
.b.c'.b.c' | .b.c'.g.f | ee'/e'/e'e' |1 e'((3b/c'/b/a)g :|2 e'zz2 |]
K:Ab
!2!z4 |\
(g>fge) | a3z | !2!z4 | (c'>ac'_c') |\
b3z | !2!z4 | (d'>=d'e'_d') | c'2Bc |
da2a | .g.f.e.d | .c.ALB2 | A(a/g/ a/b/c'/=d'/) |:\
e'Lb2c' | g4 | zaz=a | .b.c'.=d'z |
e'Lb2c' | g4 | zbz=b | .c'.=d'.e'z |\
e'Lb2c' | g4 | zc'zd' | .=d'.e'.f'.^f' |
g'/z/zz2 | !2!z4 | z2ze | c'/z/Lc'2a |\
c'2a2 | g>fge | a3c' | d'/z/Ld'2b | d'2b |\
c'>ac'>_c' | b3b |
e'/z/Le'2e' | f'2e'2 |\
d'>=d'e'_d' | c'2bc' | d'a'2a' | g'f'e'd' |\
c'aLb2 |1 a(a/g/ a/b/c'/=d'/ :|2 azLaz |]
